X:188
T:Uskudar
O:klezmer
M:2/4
L:1/8
Q:1/4=65
K:Dm
V:1
"Dm" D3/2 A/AA |B/A/B/d/ A3/2 A/|"Gm" G3/2 G/FG |"A7" A/B/A/G/ F/E/D |
"Dm" D3/2 A/AA |B/A/B/d/ A3/2 A/|"Gm" G3/2 G/FG |"A7" A/B/A/G/ F/E/D |
"Dm" D3/2 E/FG |"A7" A/B/A/G/ F/E/D |"Gm" E/F/F/E/ G/F/E/D/ |"A7" E/F/E/D/ ^C/B,/A, |
"Dm" D3/2 E/FG |"A7" A/B/A/G/ F/E/D |"Gm" E/F/F/E/ G/F/E/^C/ |"Dm" D4 :| |:
"Dm" A/B/A/G/ F/E/F/G/ |A/B/A/G/ F/E/D |"Gm" E/F/F/E/ G/F/E/D/ |"A7" E/F/E/D/ ^C/B,/A, |
"Dm" A/B/A/G/ F/E/F/G/ |A/B/A/G/ F/E/D |"Gm" E/F/F/E/ "A7" G/F/E/^C/ |"Dm" D4 :| |:
{^c/}"Dm" d3/2 ^c/^c/B/B/ A/|A4 |"F" A/B,/F/A/ "D7"  (3c/B/A/ "Gm" G|G/d/ d/c/c/B/ B/A/|
"Dm" A3 "C7" C|"F" F/G/ AA A|"C7" A/G/ A/B/"F" A/G/ F|z/4C/4D/4E/4 F/4G/4A/4B/4c/B/ B/A/|
"C7" A/G/ A/B/"F" A/G/ F|"Cm" ^F/G3/2 ^F/_E/_E/D/ |"D" D_e/4d/4c/4B/4 A/4B/4A/4G/4^F/4G/4^F/4_E/4 |"Cm" ^F/G3/2 ^F/_E/_E/D/ |
"D" D4 :|





